X:30
T:Goddesses
C:John Playford 1651
S:Colin Hume's website,  colinhume.com  - chords can also be printed below the stave.
Q:1/2=120
M:2/2
L:1/8
P:(AABBCCDD)5AB
K:Gm clef=treble
P:A
[|: "Gm"G2GA B2AG | "F"A2AB c2BA | "Eb"G2GA B2AG | "D7"d2d2 d4 :|]
P:B
[|: "Bb"f2dc B3d | "F"c2AG F3A | "Gm"B2AG "D"^FGA2 | "Gm"B2G2G4 :|]
P:C
[|: "Gm"G2GA BABG | "F"A2AB cBcA | "Eb"GFGA BABc \
    |1 "D7"d2d2 d4 :|2 "D7" d2d2d3 g |]
P:D
[|: "Bb"fedc B2 ed | "F"cBAG F2ED | "Gm"GABG "D"ABcA \
    |1 B2G2G3 g :|2 B2G2G4 |]

